X: 256
T:Ave festiva ferculis
N: Derived from Jos2303-Ave_festiva_ferculis.krn
C: Josquin des Prez
%%abc-version 2.0
%%abcx-abcm2ps-target-version 5.9.1 (29 Sep 2008)
%%abc-creator hum2abc beta
%%abcx-conversion-date 2019/02/12 16:15:51
%%abc-edited-by Jesse Rodin
%%abc-edited-by The Other Josquin/Jesse Rodin 2013
%%abcx-initial-encoding-date 2013/05/18/
%%humdrum-veritas 1406207552
%%humdrum-veritas-data 105747509
%%linebreak <none>
%%barnumbers 0
L: 1/4
M: 2/1
Q: 1/2=120
%%staves [1 2 3 4]
V: 1 clef=treble
V: 2 clef=treble-8
V: 3 clef=treble-8
V: 4 clef=bass
K: C
[V:1] z8 | 
[V:2] z8 | 
[V:3] z8 | 
[V:4] C8 | 
[V:1] z8 | 
[V:2] z8 | 
[V:3] z8 | 
[V:4] C4D4 | 
[V:1] z8 | 
[V:2] c8 | 
[V:3] z8 | 
[V:4] E3DCB,A,2- | 
[V:1] z8 | 
[V:2] c4d4 | 
[V:3] z8 | 
[V:4] A,G,C4B,2 | 
[V:1] c8 | 
[V:2] e3dcBA2- | 
[V:3] z8 | 
[V:4] C3B,A,G,F,2- | 
[V:1] c4d4 | 
[V:2] AGc4B2 | 
[V:3] z8 | 
[V:4] F,E,D,C,G,4 | 
[V:1] e3dcBA2- | 
[V:2] c3BAGF2- | 
[V:3] c8 | 
[V:4] C,4z4 | 
[V:1] AGc4B2 | 
[V:2] FEDCG4 | 
[V:3] c4d4 | 
[V:4] z8 | 
[V:1] c3BAGF2- | 
[V:2] G4g2a2- | 
[V:3] e3dcBA2- | 
[V:4] C,4C,2F,2- | 
[V:1] FEDCD4 | 
[V:2] a2f2g4 | 
[V:3] AGc4B2 | 
[V:4] F,G,A,2G,4 | 
[V:1] E8 | 
[V:2] G8- | 
[V:3] c8- | 
[V:4] C,8- | 
[V:1] z4G4 | 
[V:2] G8 | 
[V:3] c8 | 
[V:4] C,8 | 
[V:1] A4B4 | 
[V:2] c4d2e2- | 
[V:3] z8 | 
[V:4] z4G,4 | 
[V:1] c4B2G2- | 
[V:2] edefg4 | 
[V:3] z4G4 | 
[V:4] A,4B,4 | 
[V:1] G2^F2G4 | 
[V:2] z2c2d2e2- | 
[V:3] A4B4 | 
[V:4] C4G,4 | 
[V:1] z4d4 | 
[V:2] edefg2d2 | 
[V:3] c4B2G2- | 
[V:4] A,4G,4 | 
[V:1] c3AB2G2- | 
[V:2] f3ed2c2 | 
[V:3] G2F2G4 | 
[V:4] A,4G,2E,2 | 
[V:1] G2^F2G4 | 
[V:2] d4B4 | 
[V:3] A4G4 | 
[V:4] D,4E,4 | 
[V:1] z2c4B2 | 
[V:2] c4z4 | 
[V:3] z8 | 
[V:4] C,4z4 | 
[V:1] c4z2d2 | 
[V:2] z8 | 
[V:3] z8 | 
[V:4] z2C4B,2 | 
[V:1] e4d2d2 | 
[V:2] z2c4B2 | 
[V:3] z8 | 
[V:4] C4z2D2 | 
[V:1] c2BAG4 | 
[V:2] c4z2d2 | 
[V:3] z2c4B2 | 
[V:4] E4D2D2 | 
[V:1] z4G4 | 
[V:2] e4d2d2 | 
[V:3] c4z2d2 | 
[V:4] C2A,CG,4 | 
[V:1] G3ABcd2 | 
[V:2] c2AcG4 | 
[V:3] e4d2d2 | 
[V:4] C,4z4 | 
[V:1] e2c4B2 | 
[V:2] g2c2d4 | 
[V:3] c2BAG4 | 
[V:4] z8 | 
[V:1] c8 | 
[V:2] c8 | 
[V:3] G8 | 
[V:4] C,8- | 
[V:1] z4G4 | 
[V:2] e8 | 
[V:3] c8 | 
[V:4] C,8 | 
[V:1] A2B2c4 | 
[V:2] f4e2f2 | 
[V:3] c8 | 
[V:4] F,2G,2A,4 | 
[V:1] B8 | 
[V:2] g8 | 
[V:3] d8 | 
[V:4] G,8- | 
[V:1] z4d4 | 
[V:2] z4g4 | 
[V:3] B8 | 
[V:4] G,8 | 
[V:1] e4e4 | 
[V:2] g4a4 | 
[V:3] c4c4 | 
[V:4] C,4C,4 | 
[V:1] d4A2B2 | 
[V:2] f8 | 
[V:3] d8 | 
[V:4] F,8 | 
[V:1] c4B4- | 
[V:2] g8 | 
[V:3] e8 | 
[V:4] E,8 | 
[V:1] B4A4 | 
[V:2] g4f4 | 
[V:3] d4c4 | 
[V:4] G,4A,4 | 
[V:1] B8 | 
[V:2] e8 | 
[V:3] B8 | 
[V:4] E,8 | 
[V:1] z4G4 | 
[V:2] z4e4 | 
[V:3] z8 | 
[V:4] z8 | 
[V:1] A4G2E2- | 
[V:2] c3defg2- | 
[V:3] z8 | 
[V:4] z8 | 
[V:1] E2G2F4 | 
[V:2] gfe4d2 | 
[V:3] z8 | 
[V:4] z8 | 
[V:1] E8 | 
[V:2] e8 | 
[V:3] z8 | 
[V:4] z8 | 
[V:1] z4e4 | 
[V:2] z4g4 | 
[V:3] B8 | 
[V:4] E,8 | 
[V:1] e8 | 
[V:2] g8 | 
[V:3] c8 | 
[V:4] C,8 | 
[V:1] f8 | 
[V:2] a8 | 
[V:3] c8 | 
[V:4] F,8 | 
[V:1] e8- | 
[V:2] g8 | 
[V:3] c8 | 
[V:4] C,8 | 
[V:1] e4d2c2- | 
[V:2] c4d2e2- | 
[V:3] z8 | 
[V:4] z8 | 
[V:1] cBAGA4 | 
[V:2] efg4^f2 | 
[V:3] z8 | 
[V:4] z8 | 
[V:1] G4E2F2- | 
[V:2] g4G2A2- | 
[V:3] z8 | 
[V:4] z8 | 
[V:1] FEDCD4 | 
[V:2] AGc4B2 | 
[V:3] z8 | 
[V:4] z8 | 
[V:1] C8 | 
[V:2] c8 | 
[V:3] z8 | 
[V:4] z8 | 
[V:1] z4e4 | 
[V:2] G8 | 
[V:3] c8 | 
[V:4] C,8 | 
[V:1] f8 | 
[V:2] _B8 | 
[V:3] d8 | 
[V:4] _B,,8 | 
[V:1] e8 | 
[V:2] G4g4 | 
[V:3] c4e4 | 
[V:4] C,8 | 
[V:1] d4c4- | 
[V:2] a8 | 
[V:3] f8 | 
[V:4] F,8 | 
[V:1] c4B4 | 
[V:2] g8 | 
[V:3] d8 | 
[V:4] G,8 | 
[V:1] !fermata!c8 | 
[V:2] !fermata!g8 | 
[V:3] !fermata!c8 | 
[V:4] !fermata!C,8 | 
[V:1] (3G6A2B4 | 
[V:2] (3e6f2g4 | 
[V:3] z8 | 
[V:4] (3:2:2C8G,4 | 
[V:1] (3:2:2c8B4 | 
[V:2] (3:2:2c4d8 | 
[V:3] z8 | 
[V:4] (3:2:2A,4G,8 | 
[V:1] (3:2:2c8z4 | 
[V:2] (3:2:2c8z4 | 
[V:3] (3G6A2B4 | 
[V:4] (3:2:2C,8z4 | 
[V:1] (3:2:2e8f4 | 
[V:2] (3:2:2g8f4 | 
[V:3] (3:2:2c8B4 | 
[V:4] (3:2:2C,8D,4 | 
[V:1] (3:2:2e4d8 | 
[V:2] (3:2:2a4g8 | 
[V:3] (3:2:2c8z4 | 
[V:4] (3:2:2C,4G,8 | 
[V:1] (3c6B2A4 | 
[V:2] (3:2:2g8z4 | 
[V:3] (3:2:2e8f4 | 
[V:4] (3:2:2C,8z4 | 
[V:1] (3:2:2G4F8 | 
[V:2] z8 | 
[V:3] (3:2:2e4d8 | 
[V:4] z8 | 
[V:1] (3:2:2E8D4 | 
[V:2] (3:2:1g12 | 
[V:3] (3:2:2c8B4 | 
[V:4] (3:2:2C,8G,4 | 
[V:1] (3:2:2G8^F4 | 
[V:2] (3:2:2c4d8 | 
[V:3] (3:2:2G4A8 | 
[V:4] (3:2:2E,4D,8 | 
[V:1] !fermata!G8 | 
[V:2] !fermata!B8 | 
[V:3] !fermata!G8 | 
[V:4] !fermata!D8 | 
[V:1] c8 | 
[V:2] g8 | 
[V:3] e8 | 
[V:4] C8 | 
[V:1] c4def2- | 
[V:2] a4z2a2 | 
[V:3] e4B2c2- | 
[V:4] A,4G,2F,2 | 
[V:1] f2e4d2 | 
[V:2] f2g2a4 | 
[V:3] c2B2B2AB | 
[V:4] A,2G,2F,3E, | 
[V:1] e8 | 
[V:2] g8 | 
[V:3] c4z2c2 | 
[V:4] C,4z2C,2 | 
[V:1] z8 | 
[V:2] z8 | 
[V:3] c3AB2c2- | 
[V:4] E,3F,G,2A,2- | 
[V:1] z8 | 
[V:2] z8 | 
[V:3] cBAGA4 | 
[V:4] A,F,G,4^F,2 | 
[V:1] z8 | 
[V:2] z8 | 
[V:3] G3ABcd2- | 
[V:4] G,6F,2- | 
[V:1] z4f4 | 
[V:2] z8 | 
[V:3] dBc4B2 | 
[V:4] F,E,D,C,D,4 | 
[V:1] e4d2e2- | 
[V:2] g8 | 
[V:3] c4z4 | 
[V:4] C,4z4 | 
[V:1] edcBA4 | 
[V:2] g4f4 | 
[V:3] z8 | 
[V:4] z8 | 
[V:1] G3ABcd2- | 
[V:2] e4d2f2- | 
[V:3] z8 | 
[V:4] z8 | 
[V:1] dGc4B2 | 
[V:2] fedcd4 | 
[V:3] z8 | 
[V:4] z8 | 
[V:1] c4c4- | 
[V:2] c4g4- | 
[V:3] e8 | 
[V:4] C,8 | 
[V:1] c4B4 | 
[V:2] g4g4 | 
[V:3] d8 | 
[V:4] G,8 | 
[V:1] c4z2D2 | 
[V:2] G8 | 
[V:3] c8 | 
[V:4] C,8- | 
[V:1] E3FG2A2- | 
[V:2] G4E4 | 
[V:3] c8 | 
[V:4] C,8 | 
[V:1] AGF4ED | 
[V:2] F4F4 | 
[V:3] A4B4 | 
[V:4] D,4D,4 | 
[V:1] E4z2G2 | 
[V:2] G8 | 
[V:3] c8 | 
[V:4] C,8 | 
[V:1] B3cd2e2- | 
[V:2] z4g4 | 
[V:3] d4B4 | 
[V:4] G,8 | 
[V:1] edc4BA | 
[V:2] e4f4 | 
[V:3] c4c4 | 
[V:4] A,4A,4 | 
[V:1] B3cd2e2- | 
[V:2] g8 | 
[V:3] d4B4 | 
[V:4] G,8 | 
[V:1] edc4B2 | 
[V:2] g4g4 | 
[V:3] e4d4 | 
[V:4] G,8 | 
[V:1] !fermata!c8 | 
[V:2] !fermata!g8 | 
[V:3] !fermata!c8 | 
[V:4] !fermata!C,8 | 
[V:1] z8 | 
[V:2] z8 | 
[V:3] z8 | 
[V:4] (3G,4G,4G,4 | 
[V:1] z8 | 
[V:2] z8 | 
[V:3] z8 | 
[V:4] (3:2:2C8C4 | 
[V:1] z8 | 
[V:2] (3G4G4G4 | 
[V:3] z8 | 
[V:4] (3:2:2B,8B,4 | 
[V:1] z8 | 
[V:2] (3:2:2c8c4 | 
[V:3] z8 | 
[V:4] (3A,4A,4A,4 | 
[V:1] (3G4G4G4 | 
[V:2] (3:2:2B8B4 | 
[V:3] z8 | 
[V:4] (3:2:2G,8G,4 | 
[V:1] (3:2:2c8c4 | 
[V:2] (3A4A4A4 | 
[V:3] z8 | 
[V:4] z8 | 
[V:1] (3:2:2B8B4 | 
[V:2] (3:2:2G8G4 | 
[V:3] (3G4G4G4 | 
[V:4] z8 | 
[V:1] (3A4A4A4 | 
[V:2] z8 | 
[V:3] (3:2:2c8c4 | 
[V:4] (3:2:2F,8F,4 | 
[V:1] (3:2:4G6F2E2D2 | 
[V:2] (3d4d4d4 | 
[V:3] (3:2:2B8B4 | 
[V:4] (3:2:2G,8G,4 | 
[V:1] (3:2:2G8^F4 | 
[V:2] (3:2:2d8d4 | 
[V:3] (3A4A4A4 | 
[V:4] (3:2:2D,8D,4 | 
[V:1] G8 | 
[V:2] (3B6A2G4 | 
[V:3] (3:2:2G8G4 | 
[V:4] (3D4D4C4 | 
[V:1] (3d4d4c4 | 
[V:2] (3:2:4g4f2e2f4 | 
[V:3] z8 | 
[V:4] (3:2:4B,4A,2G,2A,4 | 
[V:1] (3:2:4B4A2G2A4 | 
[V:2] (3g6f2e4 | 
[V:3] (3d4d4c4 | 
[V:4] G,8 | 
[V:1] (3:2:2G8^F4 | 
[V:2] (3:2:2d8d4 | 
[V:3] (3:2:4B4A2G2A4 | 
[V:4] (3:2:2D,8D,4 | 
[V:1] G8 | 
[V:2] B8 | 
[V:3] G8 | 
[V:4] (3:2:2E,8E,4 | 
[V:1] z8 | 
[V:2] z8 | 
[V:3] (3:2:2A8A4 | 
[V:4] (3:2:2F,8F,4 | 
[V:1] z8 | 
[V:2] (3:2:2d8d4 | 
[V:3] (3:2:2B8B4 | 
[V:4] (3:2:4G,6F,2E,2D,2 | 
[V:1] z8 | 
[V:2] (3:2:2e8e4 | 
[V:3] (3:2:2c8c4 | 
[V:4] C,8 | 
[V:1] (3:2:2A8A4 | 
[V:2] (3:2:2f8f4 | 
[V:3] (3:2:4d6c2B2A2 | 
[V:4] z8 | 
[V:1] (3:2:2B8B4 | 
[V:2] (3:2:4g6f2e2d2 | 
[V:3] (3:2:2G8G4 | 
[V:4] z8 | 
[V:1] (3:2:2c8c4 | 
[V:2] (3:2:2c8c4 | 
[V:3] (3:2:2A8A4 | 
[V:4] z8 | 
[V:1] (3:2:4d6c2B2A2 | 
[V:2] (3:2:2g8g4 | 
[V:3] (3:2:2B8B4 | 
[V:4] (3:2:2G,8G,4 | 
[V:1] (3G4A6F2 | 
[V:2] (3d2e2f8 | 
[V:3] (3:2:2B4c8 | 
[V:4] (3G,4F,6E,2 | 
[V:1] (3:2:2G8^F4 | 
[V:2] (3:2:2e4d8 | 
[V:3] (3:2:2c4A8 | 
[V:4] (3:2:2C,4D,8 | 
[V:1] G8 | 
[V:2] B8 | 
[V:3] G8 | 
[V:4] D8 | 
[V:1] G4G4 | 
[V:2] d4d4 | 
[V:3] B4B4 | 
[V:4] G,4G,4 | 
[V:1] A4A4 | 
[V:2] f4e2f2 | 
[V:3] c4c4 | 
[V:4] F,4A,4 | 
[V:1] B2c4B2 | 
[V:2] g8- | 
[V:3] d2e2d4 | 
[V:4] G,8 | 
[V:1] c8 | 
[V:2] g8 | 
[V:3] c8 | 
[V:4] C,8 | 
[V:1] z4e4 | 
[V:2] z4g4 | 
[V:3] z4c4 | 
[V:4] z4C,4 | 
[V:1] f6f2 | 
[V:2] a6a2 | 
[V:3] c6c2 | 
[V:4] F,4-F,2F,2 | 
[V:1] e4d4 | 
[V:2] g4f4 | 
[V:3] c4A4 | 
[V:4] C,4D,4 | 
[V:1] c3BAGA2 | 
[V:2] e2c2d4 | 
[V:3] G4A4 | 
[V:4] E,4F,4 | 
[V:1] G2c2d2e2 | 
[V:2] e4f2g2 | 
[V:3] B2G2ABc2- | 
[V:4] E,4D,2C,2 | 
[V:1] f4e2d2- | 
[V:2] a4g4 | 
[V:3] c4c2B2 | 
[V:4] F,4C,2G,2 | 
[V:1] dcc4B2 | 
[V:2] e2f2g4 | 
[V:3] c4d4 | 
[V:4] A,4G,4 | 
[V:1] c8 |]  
[V:2] g8 |]  
[V:3] c8 |]  
[V:4] C,8 |]  



